src/icons/svg/key.svg

<?xml version="1.0" encoding="UTF-8"?>
<svg width="40px" height="39px" viewBox="0 0 40 39" version="1.1" xmlns="http://www.w3.org/2000/svg"
>
    <path d="M37.3489926,0.587559194 C38.1284112,1.36721323 38.1284112,2.63103249 37.3489926,3.41068652 L35.2885489,5.47312678 L39.4114328,9.56606243 C39.7881771,9.94079198 40,10.4502451 40,10.9816192 C40,11.5129933 39.7881771,12.0224464 39.4114328,12.397176 L33.0883464,18.686321 C32.3096155,19.4604321 31.0519361,19.4604321 30.2732053,18.686321 L26.1623006,14.5973784 L21.4823781,19.277301 C23.6152508,22.1715193 24.3174871,25.8780927 23.3910837,29.3519123 L21.4624126,28.8368014 L23.3910837,29.3519123 C22.2848312,33.4789026 19.0518761,36.6966186 14.9197052,37.7833598 C10.7861618,38.8768446 6.38324714,37.6819308 3.36964043,34.64877 L3.353668,34.6327976 C-1.17408159,29.9784403 -1.10906436,22.5459904 3.49941644,17.9715547 C7.54410603,13.9575986 13.8570428,13.3496861 18.5933645,16.5180634 L34.5258652,0.58556264 C34.9003554,0.210655638 35.4085233,0 35.9384272,0 C36.4683311,0 36.976499,0.210655638 37.3509891,0.58556264 L37.3489926,0.587559194 Z M17.5012495,20.7567475 C14.3837135,17.7174001 9.40484743,17.7396152 6.31455754,20.8066613 C3.26067509,23.8361035 3.21437298,28.7592638 6.21073674,31.8456083 C8.21897421,33.8596593 11.1479195,34.6516157 13.8974695,33.9240209 C16.6437428,33.2030319 18.7931506,31.065815 19.5297483,28.323687 C20.2503535,25.6201128 19.4775598,22.7373491 17.5012495,20.7567475 L17.5012495,20.7567475 Z M29.0892488,11.882065 L31.6767827,14.4576197 L35.1707522,10.9836158 L32.5812217,8.40806112 L29.0912453,11.882065 L29.0892488,11.882065 Z"
          id="形状" fill="#646A73"></path>
    <path d="M37.3489926,0.587559194 C38.1284112,1.36721323 38.1284112,2.63103249 37.3489926,3.41068652 L35.2885489,5.47312678 L39.4114328,9.56606243 C39.7881771,9.94079198 40,10.4502451 40,10.9816192 C40,11.5129933 39.7881771,12.0224464 39.4114328,12.397176 L33.0883464,18.686321 C32.3096155,19.4604321 31.0519361,19.4604321 30.2732053,18.686321 L26.1623006,14.5973784 L21.4823781,19.277301 C23.6152508,22.1715193 24.3174871,25.8780927 23.3910837,29.3519123 L21.4624126,28.8368014 L23.3910837,29.3519123 C22.2848312,33.4789026 19.0518761,36.6966186 14.9197052,37.7833598 C10.7861618,38.8768446 6.38324714,37.6819308 3.36964043,34.64877 L3.353668,34.6327976 C-1.17408159,29.9784403 -1.10906436,22.5459904 3.49941644,17.9715547 C7.54410603,13.9575986 13.8570428,13.3496861 18.5933645,16.5180634 L34.5258652,0.58556264 C34.9003554,0.210655638 35.4085233,0 35.9384272,0 C36.4683311,0 36.976499,0.210655638 37.3509891,0.58556264 L37.3489926,0.587559194 Z M17.5012495,20.7567475 C14.3837135,17.7174001 9.40484743,17.7396152 6.31455754,20.8066613 C3.26067509,23.8361035 3.21437298,28.7592638 6.21073674,31.8456083 C8.21897421,33.8596593 11.1479195,34.6516157 13.8974695,33.9240209 C16.6437428,33.2030319 18.7931506,31.065815 19.5297483,28.323687 C20.2503535,25.6201128 19.4775598,22.7373491 17.5012495,20.7567475 L17.5012495,20.7567475 Z M29.0892488,11.882065 L31.6767827,14.4576197 L35.1707522,10.9836158 L32.5812217,8.40806112 L29.0912453,11.882065 L29.0892488,11.882065 Z"
          id="形状" fill-opacity="0.2" fill="#000000"></path>
</svg>

<svg width="40" height="39" xmlns="http://www.w3.org/2000/svg"><path d="M37.349.588c.78.78.78 2.043 0 2.823l-2.06 2.062 4.122 4.093a1.997 1.997 0 0 1 0 2.831l-6.323 6.29a1.997 1.997 0 0 1-2.815 0l-4.11-4.09-4.68 4.68a11.84 11.84 0 0 1 1.908 10.075l-1.929-.515 1.93.515a11.905 11.905 0 0 1-8.472 8.431A11.967 11.967 0 0 1 3.37 34.65l-.016-.016c-4.528-4.655-4.463-12.087.145-16.661a11.975 11.975 0 0 1 15.094-1.454L34.526.586a1.997 1.997 0 0 1 2.825 0l-.002.002zM17.501 20.757a7.976 7.976 0 0 0-11.186.05 7.848 7.848 0 0 0-.104 11.039 7.974 7.974 0 0 0 7.686 2.078 7.912 7.912 0 0 0 5.633-5.6 7.85 7.85 0 0 0-2.029-7.567zm11.588-8.875l2.588 2.576 3.494-3.474-2.59-2.576-3.49 3.474h-.002z" fill="currentColor"/><path d="M37.349.588c.78.78.78 2.043 0 2.823l-2.06 2.062 4.122 4.093a1.997 1.997 0 0 1 0 2.831l-6.323 6.29a1.997 1.997 0 0 1-2.815 0l-4.11-4.09-4.68 4.68a11.84 11.84 0 0 1 1.908 10.075l-1.929-.515 1.93.515a11.905 11.905 0 0 1-8.472 8.431A11.967 11.967 0 0 1 3.37 34.65l-.016-.016c-4.528-4.655-4.463-12.087.145-16.661a11.975 11.975 0 0 1 15.094-1.454L34.526.586a1.997 1.997 0 0 1 2.825 0l-.002.002zM17.501 20.757a7.976 7.976 0 0 0-11.186.05 7.848 7.848 0 0 0-.104 11.039 7.974 7.974 0 0 0 7.686 2.078 7.912 7.912 0 0 0 5.633-5.6 7.85 7.85 0 0 0-2.029-7.567zm11.588-8.875l2.588 2.576 3.494-3.474-2.59-2.576-3.49 3.474h-.002z" fill-opacity=".2" fill="currentColor"/></svg>
